X: 43482
T: Yellow Stocking, The
R: slip jig
M: 9/8
K: Eminor
|:G2 B GEE GEE|G2 B GEE FED|G2 B GEE GEE|FGA ABG FED:|
|:G2 c BGd BGd|G2 c BGd cBA|G2 c BGd BGd|ecA ABG FED:|
|:B3 GEE GEE|B3 GEE FED|B3 GEE GEE|FGA ABG FED:|

